;FLAVOR:Marlin
;TIME:8302
;Filament used: 4.27884m
;Layer height: 0.16
;MINX:78.904
;MINY:63.076
;MINZ:0.2
;MAXX:156.099
;MAXY:171.927
;MAXZ:3.2
;Generated with Cura_SteamEngine 5.2.1
M140 S50
M105
M190 S50
M104 S200
M105
M109 S200
M82 ;absolute extrusion mode
; Ender 3 Custom Start G-code
G92 E0 ; Reset Extruder
G28 ; Home all axes
G1 Z2.0 F3000 ; Move Z Axis up little to prevent scratching of Heat Bed
G1 X0.1 Y20 Z0.3 F5000.0 ; Move to start position
G1 X0.1 Y200.0 Z0.3 F1500.0 E15 ; Draw the first line
G1 X0.4 Y200.0 Z0.3 F5000.0 ; Move to side a little
G1 X0.4 Y20 Z0.3 F1500.0 E30 ; Draw the second line
G92 E0 ; Reset Extruder
G1 Z2.0 F3000 ; Move Z Axis up little to prevent scratching of Heat Bed
G1 X5 Y20 Z0.3 F5000.0 ; Move over to prevent blob squish
G92 E0
G92 E0
G1 F2700 E-5
;LAYER_COUNT:27
;LAYER:0
M107
G0 F6000 X81.603 Y67.316 Z0.2
;TYPE:SKIRT
G1 F2700 E0
G1 F1200 X82.238 Y66.607 E0.03007
G1 X82.929 Y65.953 E0.06014
G1 X83.673 Y65.359 E0.09022
G1 X84.465 Y64.83 E0.12031
G1 X85.298 Y64.369 E0.15039
G1 X86.166 Y63.98 E0.18045
G1 X87.064 Y63.665 E0.21052
G1 X87.986 Y63.427 E0.2406
G1 X88.924 Y63.266 E0.27068
G1 X90.042 Y63.179 E0.30611
G1 X90.681 Y63.166 E0.3263
G1 X106.991 Y63.166 E0.84165
G1 X108.167 Y63.15 E0.87881
G1 X110.054 Y63.143 E0.93844
G1 X112.348 Y63.166 E1.01093
G1 X113.215 Y63.166 E1.03832
G1 X115.855 Y63.129 E1.12175
G1 X116.841 Y63.095 E1.15292
G1 X117.96 Y63.08 E1.18828
G1 X118.369 Y63.082 E1.2012
G1 X119.976 Y63.118 E1.25199
G1 X122.629 Y63.14 E1.33582
G1 X124.209 Y63.113 E1.38575
G1 X125.497 Y63.111 E1.42645
G1 X126.427 Y63.124 E1.45584
G1 X129.03 Y63.124 E1.53809
G1 X131.067 Y63.076 E1.60247
G1 X134.45 Y63.102 E1.70936
G1 X136.076 Y63.078 E1.76075
G1 X136.682 Y63.079 E1.77989
G1 X138.227 Y63.122 E1.82873
G1 X141.121 Y63.166 E1.92018
G1 X144.147 Y63.167 E2.0158
G1 X144.845 Y63.178 E2.03785
G1 X145.795 Y63.233 E2.06792
G1 X146.737 Y63.368 E2.09799
G1 X147.665 Y63.581 E2.12807
G1 X148.571 Y63.871 E2.15813
G1 X149.45 Y64.237 E2.18822
G1 X150.295 Y64.674 E2.21828
G1 X151.101 Y65.182 E2.24838
G1 X151.861 Y65.755 E2.27845
G1 X152.57 Y66.389 E2.30851
G1 X153.224 Y67.082 E2.33861
G1 X153.817 Y67.826 E2.36868
G1 X154.345 Y68.618 E2.39875
G1 X154.805 Y69.451 E2.42882
G1 X155.194 Y70.32 E2.4589
G1 X155.508 Y71.218 E2.48896
G1 X155.746 Y72.14 E2.51905
G1 X155.906 Y73.078 E2.54911
G1 X155.991 Y74.187 E2.58426
G1 X156.005 Y74.826 E2.60445
G1 X156.005 Y83.292 E2.87196
G1 X156.093 Y88.115 E3.02437
G1 X156.089 Y89.259 E3.06052
G1 X156.071 Y89.874 E3.07996
G1 X156.005 Y93.394 E3.1912
G1 X156.005 Y122.194 E4.1012
G1 X156.085 Y126.13 E4.22559
G1 X156.094 Y127.275 E4.26177
G1 X156.079 Y128.488 E4.3001
G1 X156.005 Y132.334 E4.42165
G1 X156.005 Y134.121 E4.47811
G1 X156.054 Y137.232 E4.57642
G1 X156.055 Y144.53 E4.80702
G1 X156.044 Y145.294 E4.83116
G1 X156.047 Y146.738 E4.87679
G1 X156.034 Y148.246 E4.92444
G1 X156.06 Y151.521 E5.02792
G1 X156.092 Y153.423 E5.08803
G1 X156.099 Y154.915 E5.13517
G1 X156.094 Y156.181 E5.17517
G1 X156.074 Y157.365 E5.21259
G1 X156.005 Y159.903 E5.29281
G1 X155.993 Y160.661 E5.31677
G1 X155.938 Y161.612 E5.34687
G1 X155.803 Y162.554 E5.37693
G1 X155.59 Y163.482 E5.40702
G1 X155.299 Y164.388 E5.43709
G1 X154.934 Y165.267 E5.46716
G1 X154.496 Y166.112 E5.49723
G1 X153.989 Y166.917 E5.52729
G1 X153.416 Y167.677 E5.55737
G1 X152.781 Y168.387 E5.58746
G1 X152.089 Y169.04 E5.61753
G1 X151.344 Y169.633 E5.64761
G1 X150.553 Y170.162 E5.67768
G1 X149.719 Y170.622 E5.70778
G1 X148.85 Y171.01 E5.73785
G1 X147.952 Y171.324 E5.76791
G1 X147.03 Y171.562 E5.79799
G1 X146.092 Y171.722 E5.82806
G1 X144.984 Y171.807 E5.86317
G1 X144.345 Y171.821 E5.88337
G1 X135.821 Y171.821 E6.1527
G1 X133.587 Y171.848 E6.22329
G1 X132.042 Y171.884 E6.27213
G1 X130.343 Y171.873 E6.32581
G1 X127.551 Y171.821 E6.41404
G1 X122.185 Y171.821 E6.58359
G1 X118.562 Y171.891 E6.69809
G1 X117.877 Y171.917 E6.71975
G1 X117.34 Y171.925 E6.73672
G1 X115.995 Y171.913 E6.77922
G1 X115.7 Y171.921 E6.78855
G1 X112.56 Y171.907 E6.88776
G1 X111.253 Y171.927 E6.92906
G1 X110.364 Y171.916 E6.95716
G1 X109.385 Y171.881 E6.98811
G1 X106.062 Y171.821 E7.09312
G1 X98.522 Y171.821 E7.33137
G1 X95.299 Y171.876 E7.43322
G1 X93.879 Y171.921 E7.47811
G1 X92.831 Y171.921 E7.51122
G1 X91.85 Y171.894 E7.54223
G1 X89.828 Y171.799 E7.60619
G1 X88.88 Y171.714 E7.63627
G1 X87.943 Y171.55 E7.66632
G1 X87.022 Y171.308 E7.69641
G1 X86.125 Y170.99 E7.72648
G1 X85.258 Y170.597 E7.75656
G1 X84.427 Y170.133 E7.78663
G1 X83.638 Y169.601 E7.8167
G1 X82.896 Y169.005 E7.84677
G1 X82.207 Y168.348 E7.87685
G1 X81.575 Y167.636 E7.90694
G1 X81.005 Y166.873 E7.93703
G1 X80.502 Y166.066 E7.96707
G1 X80.068 Y165.218 E7.99717
G1 X79.707 Y164.338 E8.02723
G1 X79.421 Y163.43 E8.05731
G1 X79.212 Y162.501 E8.0874
G1 X79.081 Y161.559 E8.11745
G1 X79.034 Y160.788 E8.14185
G1 X79.021 Y160.149 E8.16205
G1 X79.021 Y154.318 E8.34629
G1 X78.959 Y150.921 E8.45364
G1 X78.921 Y149.774 E8.48991
G1 X78.905 Y148.462 E8.53136
G1 X78.92 Y146.242 E8.60151
G1 X78.946 Y144.83 E8.64613
G1 X78.946 Y143.873 E8.67637
G1 X78.91 Y141.088 E8.76438
G1 X78.907 Y139.215 E8.82356
G1 X78.921 Y138.26 E8.85374
G1 X78.977 Y136.58 E8.90685
G1 X79.019 Y134.016 E8.98788
G1 X78.99 Y131.512 E9.067
G1 X78.927 Y129.865 E9.11908
G1 X78.907 Y128.874 E9.1504
G1 X78.914 Y128.142 E9.17353
G1 X78.977 Y126.068 E9.23909
G1 X79.021 Y123.179 E9.33039
G1 X79.021 Y119.011 E9.46208
G1 X78.943 Y115.161 E9.58376
G1 X78.916 Y114.4 E9.60782
G1 X78.907 Y113.746 E9.62848
G1 X78.913 Y112.472 E9.66874
G1 X78.905 Y112.006 E9.68347
G1 X78.913 Y111.697 E9.69323
G1 X78.91 Y109.818 E9.7526
G1 X78.918 Y109.094 E9.77548
G1 X78.904 Y105.77 E9.88051
G1 X78.918 Y104.689 E9.91467
G1 X78.957 Y103.606 E9.94891
G1 X79.021 Y100.169 E10.05753
G1 X79.021 Y87.232 E10.4663
G1 X78.998 Y85.203 E10.53042
G1 X78.947 Y82.809 E10.60608
G1 X78.947 Y81.78 E10.63859
G1 X78.972 Y79.855 E10.69942
G1 X79.021 Y77.457 E10.77521
G1 X79.022 Y75 E10.85284
G1 X79.032 Y74.335 E10.87386
G1 X79.087 Y73.384 E10.90395
G1 X79.22 Y72.442 E10.93401
G1 X79.433 Y71.514 E10.9641
G1 X79.722 Y70.607 E10.99418
G1 X80.087 Y69.728 E11.02425
G1 X80.524 Y68.883 E11.05431
G1 X81.031 Y68.077 E11.0844
G1 X81.603 Y67.316 E11.11448
G0 F6000 X81.978 Y67.46
G1 F1200 X82.61 Y66.77 E11.14404
G1 X83.299 Y66.137 E11.1736
G1 X84.039 Y65.564 E11.20318
G1 X84.826 Y65.057 E11.23276
G1 X85.652 Y64.619 E11.2623
G1 X86.514 Y64.253 E11.29189
G1 X87.403 Y63.962 E11.32145
G1 X88.314 Y63.748 E11.35101
G1 X89.24 Y63.613 E11.38058
G1 X90.053 Y63.559 E11.40633
G1 X90.681 Y63.546 E11.42617
G1 X106.997 Y63.546 E11.94171
G1 X108.168 Y63.53 E11.97872
G1 X110.055 Y63.523 E12.03834
G1 X112.344 Y63.546 E12.11067
G1 X113.22 Y63.546 E12.13835
G1 X115.874 Y63.508 E12.22222
G1 X116.846 Y63.475 E12.25295
G1 X117.965 Y63.46 E12.28831
G1 X118.36 Y63.462 E12.30079
G1 X119.964 Y63.498 E12.35148
G1 X122.633 Y63.52 E12.43582
G1 X124.21 Y63.493 E12.48565
G1 X125.492 Y63.491 E12.52616
G1 X126.422 Y63.504 E12.55555
G1 X129.039 Y63.504 E12.63824
G1 X131.437 Y63.453 E12.71403
G1 X134.493 Y63.482 E12.81059
G1 X136.082 Y63.458 E12.86081
G1 X136.68 Y63.459 E12.8797
G1 X138.208 Y63.502 E12.928
G1 X141.116 Y63.546 E13.0199
G1 X144.141 Y63.547 E13.11548
G1 X144.839 Y63.558 E13.13753
G1 X145.773 Y63.613 E13.1671
G1 X146.699 Y63.747 E13.19666
G1 X147.61 Y63.96 E13.22622
G1 X148.5 Y64.25 E13.2558
G1 X149.361 Y64.615 E13.28535
G1 X150.189 Y65.052 E13.31493
G1 X150.976 Y65.558 E13.34449
G1 X151.717 Y66.129 E13.37405
G1 X152.406 Y66.762 E13.40362
G1 X153.039 Y67.451 E13.43318
G1 X153.611 Y68.192 E13.46276
G1 X154.118 Y68.978 E13.49231
G1 X154.555 Y69.806 E13.52189
G1 X154.921 Y70.667 E13.55145
G1 X155.211 Y71.557 E13.58103
G1 X155.424 Y72.468 E13.61059
G1 X155.559 Y73.394 E13.64016
G1 X155.612 Y74.198 E13.66562
G1 X155.625 Y74.826 E13.68547
G1 X155.625 Y83.299 E13.95319
G1 X155.715 Y88.399 E14.11436
G1 X155.709 Y89.257 E14.14147
G1 X155.691 Y89.853 E14.16031
G1 X155.625 Y93.387 E14.27199
G1 X155.625 Y122.201 E15.18243
G1 X155.705 Y126.137 E15.30683
G1 X155.714 Y127.27 E15.34263
G1 X155.699 Y128.481 E15.38089
G1 X155.625 Y132.327 E15.50244
G1 X155.625 Y134.127 E15.55931
G1 X155.674 Y137.238 E15.65762
G1 X155.675 Y144.525 E15.88787
G1 X155.664 Y145.29 E15.91205
G1 X155.667 Y146.734 E15.95767
G1 X155.654 Y148.246 E16.00545
G1 X155.68 Y151.524 E16.10903
G1 X155.712 Y153.425 E16.1691
G1 X155.719 Y154.914 E16.21615
G1 X155.714 Y156.175 E16.256
G1 X155.694 Y157.355 E16.29329
G1 X155.625 Y159.897 E16.37364
G1 X155.613 Y160.655 E16.39759
G1 X155.558 Y161.589 E16.42715
G1 X155.424 Y162.516 E16.45675
G1 X155.211 Y163.427 E16.48631
G1 X154.921 Y164.316 E16.51586
G1 X154.556 Y165.178 E16.54543
G1 X154.119 Y166.005 E16.57499
G1 X153.613 Y166.793 E16.60458
G1 X153.041 Y167.534 E16.63416
G1 X152.409 Y168.223 E16.6637
G1 X151.719 Y168.856 E16.69328
G1 X150.979 Y169.428 E16.72284
G1 X150.192 Y169.934 E16.7524
G1 X149.365 Y170.372 E16.78197
G1 X148.503 Y170.737 E16.81155
G1 X147.614 Y171.027 E16.84109
G1 X146.703 Y171.241 E16.87066
G1 X145.777 Y171.375 E16.90023
G1 X144.973 Y171.428 E16.92569
G1 X144.345 Y171.441 E16.94553
G1 X135.816 Y171.441 E17.21502
G1 X133.574 Y171.468 E17.28587
G1 X132.033 Y171.504 E17.33458
G1 X130.35 Y171.493 E17.38775
G1 X127.558 Y171.441 E17.47599
G1 X122.177 Y171.441 E17.64601
G1 X118.54 Y171.511 E17.76095
G1 X117.862 Y171.537 E17.78239
G1 X117.343 Y171.545 E17.79879
G1 X115.862 Y171.532 E17.84559
G1 X115.702 Y171.541 E17.85065
G1 X112.555 Y171.527 E17.95009
G1 X111.256 Y171.547 E17.99114
G1 X110.378 Y171.536 E18.01888
G1 X109.405 Y171.501 E18.04965
G1 X106.069 Y171.441 E18.15507
G1 X98.515 Y171.441 E18.39376
G1 X95.339 Y171.496 E18.49413
G1 X94.187 Y171.535 E18.53055
G1 X93.185 Y171.545 E18.56221
G1 X91.868 Y171.514 E18.60383
G1 X89.846 Y171.419 E18.66779
G1 X88.914 Y171.335 E18.69736
G1 X87.993 Y171.172 E18.72691
G1 X87.089 Y170.931 E18.75648
G1 X86.208 Y170.613 E18.78607
G1 X85.358 Y170.222 E18.81563
G1 X84.545 Y169.759 E18.8452
G1 X83.774 Y169.229 E18.87476
G1 X83.051 Y168.635 E18.90432
G1 X82.382 Y167.981 E18.93388
G1 X81.771 Y167.273 E18.96343
G1 X81.222 Y166.514 E18.99303
G1 X80.74 Y165.712 E19.0226
G1 X80.329 Y164.872 E19.05215
G1 X79.991 Y163.999 E19.08173
G1 X79.728 Y163.101 E19.11129
G1 X79.543 Y162.184 E19.14085
G1 X79.437 Y161.254 E19.17043
G1 X79.414 Y160.778 E19.18548
G1 X79.401 Y160.149 E19.20536
G1 X79.401 Y154.311 E19.38983
G1 X79.339 Y150.9 E19.49762
G1 X79.301 Y149.768 E19.53341
G1 X79.285 Y148.465 E19.57458
G1 X79.3 Y146.245 E19.64473
G1 X79.326 Y144.837 E19.68923
G1 X79.326 Y143.868 E19.71985
G1 X79.29 Y141.087 E19.80772
G1 X79.287 Y139.22 E19.86672
G1 X79.306 Y138.054 E19.90356
G1 X79.357 Y136.543 E19.95133
G1 X79.399 Y134.018 E20.03113
G1 X79.37 Y131.492 E20.11095
G1 X79.302 Y129.692 E20.16786
G1 X79.287 Y128.876 E20.19365
G1 X79.294 Y128.154 E20.21646
G1 X79.357 Y126.087 E20.28181
G1 X79.401 Y123.184 E20.37354
G1 X79.401 Y119.004 E20.50562
G1 X79.323 Y115.138 E20.6278
G1 X79.296 Y114.393 E20.65135
G1 X79.287 Y113.748 E20.67174
G1 X79.292 Y112.516 E20.71066
G1 X79.284 Y112 E20.72697
G1 X79.293 Y111.672 E20.73734
G1 X79.29 Y109.817 E20.79595
G1 X79.298 Y109.096 E20.81873
G1 X79.284 Y105.774 E20.9237
G1 X79.298 Y104.703 E20.95754
G1 X79.337 Y103.627 E20.99156
G1 X79.401 Y100.176 E21.10062
G1 X79.401 Y87.232 E21.50962
G1 X79.378 Y85.191 E21.57411
G1 X79.327 Y82.809 E21.64939
G1 X79.327 Y81.785 E21.68175
G1 X79.352 Y79.862 E21.74251
G1 X79.401 Y77.464 E21.8183
G1 X79.402 Y75.005 E21.896
G1 X79.412 Y74.34 E21.91701
G1 X79.466 Y73.406 E21.94657
G1 X79.6 Y72.48 E21.97614
G1 X79.812 Y71.569 E22.00569
G1 X80.101 Y70.679 E22.03526
G1 X80.465 Y69.817 E22.06482
G1 X80.902 Y68.989 E22.09441
G1 X81.407 Y68.202 E22.12395
G1 X81.978 Y67.46 E22.15354
G0 F6000 X82.353 Y67.607
G1 F1200 X82.982 Y66.937 E22.18257
G1 X83.668 Y66.324 E22.21164
G1 X84.404 Y65.774 E22.24067
G1 X85.185 Y65.289 E22.26972
G1 X86.006 Y64.874 E22.29879
G1 X86.859 Y64.532 E22.32783
G1 X87.739 Y64.265 E22.35688
G1 X88.639 Y64.076 E22.38594
G1 X89.551 Y63.966 E22.41497
G1 X90.064 Y63.939 E22.4312
G1 X90.681 Y63.926 E22.4507
G1 X107.002 Y63.926 E22.9664
G1 X108.17 Y63.91 E23.0033
G1 X110.057 Y63.903 E23.06293
G1 X112.34 Y63.926 E23.13507
G1 X113.226 Y63.926 E23.16306
G1 X115.85 Y63.889 E23.24598
G1 X116.6 Y63.861 E23.2697
G1 X117.97 Y63.84 E23.31299
G1 X118.351 Y63.842 E23.32503
G1 X119.951 Y63.878 E23.3756
G1 X122.637 Y63.9 E23.46047
G1 X124.211 Y63.873 E23.51021
G1 X125.487 Y63.871 E23.55053
G1 X126.417 Y63.884 E23.57992
G1 X129.048 Y63.884 E23.66305
G1 X131.434 Y63.833 E23.73846
G1 X134.495 Y63.862 E23.83518
G1 X136.087 Y63.838 E23.88549
G1 X136.678 Y63.839 E23.90416
G1 X138.192 Y63.882 E23.95202
G1 X141.11 Y63.926 E24.04423
G1 X144.135 Y63.927 E24.13981
G1 X144.833 Y63.938 E24.16187
G1 X145.75 Y63.993 E24.1909
G1 X146.66 Y64.127 E24.21996
G1 X147.554 Y64.339 E24.24899
G1 X148.427 Y64.629 E24.27806
G1 X149.271 Y64.993 E24.3071
G1 X150.08 Y65.429 E24.33614
G1 X150.849 Y65.934 E24.36521
G1 X151.57 Y66.503 E24.39423
G1 X152.24 Y67.134 E24.42331
G1 X152.852 Y67.82 E24.45236
G1 X153.402 Y68.556 E24.48139
G1 X153.886 Y69.338 E24.51045
G1 X154.3 Y70.159 E24.5395
G1 X154.642 Y71.012 E24.56854
G1 X154.907 Y71.892 E24.59758
G1 X155.096 Y72.792 E24.62663
G1 X155.206 Y73.705 E24.65569
G1 X155.232 Y74.209 E24.67164
G1 X155.245 Y74.826 E24.69114
G1 X155.245 Y83.306 E24.95908
G1 X155.335 Y88.396 E25.11994
G1 X155.329 Y89.254 E25.14705
G1 X155.311 Y89.832 E25.16532
G1 X155.245 Y93.38 E25.27744
G1 X155.245 Y122.209 E26.18836
G1 X155.325 Y126.145 E26.31275
G1 X155.334 Y127.265 E26.34814
G1 X155.319 Y128.473 E26.38631
G1 X155.245 Y132.319 E26.50786
G1 X155.245 Y134.133 E26.56517
G1 X155.294 Y137.244 E26.66349
G1 X155.296 Y144.368 E26.88858
G1 X155.284 Y145.285 E26.91756
G1 X155.287 Y146.731 E26.96325
G1 X155.274 Y148.246 E27.01112
G1 X155.3 Y151.527 E27.11479
G1 X155.332 Y153.427 E27.17484
G1 X155.339 Y154.913 E27.22179
G1 X155.334 Y156.168 E27.26145
G1 X155.317 Y157.228 E27.29494
G1 X155.245 Y159.891 E27.37912
G1 X155.233 Y160.649 E27.40307
G1 X155.178 Y161.567 E27.43213
G1 X155.044 Y162.477 E27.46119
G1 X154.832 Y163.371 E27.49022
G1 X154.542 Y164.244 E27.51929
G1 X154.178 Y165.088 E27.54833
G1 X153.742 Y165.897 E27.57737
G1 X153.237 Y166.665 E27.60641
G1 X152.667 Y167.387 E27.63548
G1 X152.037 Y168.056 E27.66451
G1 X151.351 Y168.668 E27.69356
G1 X150.614 Y169.218 E27.72262
G1 X149.832 Y169.702 E27.75168
G1 X149.012 Y170.116 E27.7807
G1 X148.158 Y170.458 E27.80977
G1 X147.278 Y170.724 E27.83882
G1 X146.378 Y170.912 E27.86787
G1 X145.465 Y171.022 E27.89693
G1 X144.962 Y171.048 E27.91284
G1 X144.345 Y171.061 E27.93234
G1 X135.812 Y171.061 E28.20196
G1 X133.56 Y171.088 E28.27312
G1 X132.024 Y171.124 E28.32167
G1 X130.357 Y171.113 E28.37434
G1 X127.565 Y171.061 E28.46258
G1 X122.17 Y171.061 E28.63304
G1 X118.519 Y171.131 E28.74842
G1 X117.848 Y171.157 E28.76964
G1 X117.346 Y171.165 E28.78551
G1 X115.905 Y171.152 E28.83104
G1 X115.703 Y171.161 E28.83743
G1 X112.55 Y171.147 E28.93705
G1 X111.259 Y171.167 E28.97785
G1 X110.392 Y171.156 E29.00525
G1 X109.426 Y171.121 E29.03579
G1 X106.076 Y171.061 E29.14166
G1 X98.509 Y171.061 E29.38075
G1 X95.319 Y171.116 E29.48156
G1 X94.174 Y171.155 E29.51776
G1 X93.183 Y171.165 E29.54908
G1 X92.111 Y171.143 E29.58296
G1 X89.864 Y171.039 E29.65403
G1 X88.948 Y170.956 E29.68309
G1 X88.043 Y170.794 E29.71214
G1 X87.156 Y170.554 E29.74118
G1 X86.293 Y170.237 E29.77023
G1 X85.461 Y169.847 E29.79926
G1 X84.665 Y169.386 E29.82833
G1 X83.913 Y168.857 E29.85738
G1 X83.21 Y168.265 E29.88642
